.icons/oomox-ad/32x32/apps/distributor-logo-linux-lite.svg

<svg width="32" height="32" version="1" xmlns="http://www.w3.org/2000/svg">
 <rect x="2" y="3" width="28" height="28" rx="1.4" ry="1.4" style="opacity:.2"/>
 <rect x="2" y="2" width="28" height="28" rx="1.4" ry="1.4" style="fill:#4f4f4f"/>
 <path d="m18.440292 4.9999997c-1.738253 1.0509085-3.523788 2.0288941-5.223589 3.1401556-0.623637 2.9797267-1.2279 5.9638237-1.811972 8.9515467 0.655495 0.832197 1.374437 1.612322 2.05334 2.425351-0.663155-0.211596-1.496213-0.688701-2.228071-0.984029 0.576127 2.127861 1.178763 4.249426 1.807191 6.362434 0.840253-0.07227 1.674116-0.206571 2.514098-0.281596-0.602993 0.621219-1.254051 1.194098-1.860623 1.811796 1.060396-0.441234 2.103334-0.923339 3.160159-1.373061 0.203045 0.332637-0.399029 1.523779-0.480148 2.169988 0.463261-0.750255 0.904533-1.514316 1.344766-2.278345l0.405658-0.190787s-0.118792-0.119037 0 0c0.921319 0.145327 1.840601 0.32076 2.761169 0.459574-0.828434-0.406669-1.670649-0.78471-2.499095-1.191355 0.828464-0.34344 1.711184-0.604056 2.557441-0.924148-0.832278-0.0078-1.664603 0.01499-2.496901 0.0055 0.134455-0.296898 1.139192-0.820669 1.57442-1.226363-0.607911-0.706101-1.292869-1.342338-1.905194-2.044609 1.059028-3.468079 2.170332-6.920092 3.257899-10.379359-0.975322-1.4851688-1.928133-2.9857879-2.930548-4.452734z" style="opacity:.2"/>
 <path d="m18.440292 3.9999997c-1.738253 1.0509085-3.523788 2.0288941-5.223589 3.1401556-0.623637 2.9797267-1.2279 5.9638237-1.811972 8.9515467 0.655495 0.832197 1.374437 1.612322 2.05334 2.425351-0.663155-0.211596-1.496213-0.688701-2.228071-0.984029 0.576127 2.127861 1.178763 4.249426 1.807191 6.362434 0.840253-0.07227 1.674116-0.206571 2.514098-0.281596-0.602993 0.621219-1.254051 1.194098-1.860623 1.811796 1.060396-0.441234 2.103334-0.923339 3.160159-1.373061 0.203045 0.332637-0.399029 1.523779-0.480148 2.169988 0.463261-0.750255 0.904533-1.514316 1.344766-2.278345l0.405658-0.190787s-0.118792-0.119037 0 0c0.921319 0.145327 1.840601 0.32076 2.761169 0.459574-0.828434-0.406669-1.670649-0.78471-2.499095-1.191355 0.828464-0.34344 1.711184-0.604056 2.557441-0.924148-0.832278-0.0078-1.664603 0.01499-2.496901 0.0055 0.134455-0.296898 1.139192-0.820669 1.57442-1.226363-0.607911-0.706101-1.292869-1.342338-1.905194-2.044609 1.059028-3.468079 2.170332-6.920092 3.257899-10.379359-0.975322-1.4851688-1.928133-2.9857879-2.930548-4.452734z" style="fill:#ffc107"/>
 <path d="m17.596139 7.9923506c-1.464537 3.9371024-2.38957 8.6952714-2.614382 13.093761-0.05297 0.612886-0.03803 0.488701 0.361815 0.969925 1.984534 2.388814 3.96485 4.91619 5.96037 6.943963l-6.52e-4 -0.140056c-1.907594-2.615599-3.815188-4.820783-5.722782-7.146586-0.166883-0.200328-0.212369-0.203159-0.198451-0.44588 0.253204-4.408722 1.244972-9.290226 2.214082-13.275127z" style="opacity:.2"/>
 <path d="m17.596139 6.9923506c-1.464537 3.9371024-2.38957 8.6952714-2.614382 13.093761-0.05297 0.612886-0.03803 0.488701 0.361815 0.969925 1.984534 2.388814 3.96485 4.91619 5.96037 6.943963l-6.52e-4 -0.140056c-1.907594-2.615599-3.815188-4.820783-5.722782-7.146586-0.166883-0.200328-0.212369-0.203159-0.198451-0.44588 0.253204-4.408722 1.244972-9.290226 2.214082-13.275127z" style="fill:#ffffff"/>
 <path d="M 3.4003906 2 C 2.6247906 2 2 2.6247906 2 3.4003906 L 2 4.4003906 C 2 3.6247906 2.6247906 3 3.4003906 3 L 28.599609 3 C 29.375209 3 30 3.6247906 30 4.4003906 L 30 3.4003906 C 30 2.6247906 29.375209 2 28.599609 2 L 3.4003906 2 z" style="fill:#ffffff;opacity:.1"/>
 <path d="m18.439453 4c-1.738253 1.0509085-3.522855 2.0293635-5.222656 3.140625-0.623637 2.979727-1.228428 5.963449-1.8125 8.951172 0.052347 0.066458 0.109006 0.129475 0.162109 0.195312 0.534873-2.718589 1.082806-5.434573 1.650391-8.146484 1.699801-1.1112615 3.484403-2.0897165 5.222656-3.140625 0.929796 1.3606747 1.816759 2.7514448 2.71875 4.1308594 0.071203-0.2258471 0.141869-0.451832 0.212891-0.6777344-0.975322-1.4851688-1.929226-2.9861789-2.931641-4.453125zm-7.208984 13.533203c0.104174 0.384757 0.220268 0.766059 0.326172 1.150391 0.647061 0.28977 1.334219 0.65271 1.902343 0.833984-0.443717-0.531379-0.900577-1.053085-1.349609-1.580078-0.297047-0.142433-0.596424-0.290306-0.878906-0.404297zm7.117187 1.550781c-0.07683 0.249759-0.158059 0.498131-0.234375 0.748047 0.436675 0.500819 0.903109 0.974091 1.359375 1.457031 0.207806-0.142124 0.406206-0.282806 0.544922-0.412109-0.533045-0.619143-1.11931-1.189638-1.669922-1.792969zm2.59375 3.013672c-0.403449-0.003781-0.807474-0.00148-1.210937 0.001953-0.396446 0.293154-0.89148 0.602932-1.138672 0.84375 0.767929-0.303558 1.572981-0.551947 2.349609-0.845703zm-2.46289 0.96875c-0.007025 0.011255-0.030319 0.026427-0.035157 0.03711 0.037092 4.23e-4 0.074236-3.01e-4 0.111329 0-0.0254-0.012329-0.050796-0.024733-0.076172-0.03711zm1.085937 0.517578c-0.258108 0.089268-0.510206 0.187066-0.763672 0.283204 0.693952 0.117682 1.388042 0.241055 2.082031 0.345703-0.43695-0.214494-0.877784-0.421943-1.318359-0.628907zm-4.013672 1.029297c-0.387006 0.034567-0.772571 0.081039-1.158203 0.128907-0.236445 0.225198-0.472417 0.450642-0.701172 0.683593 0.621321-0.258533 1.235924-0.532826 1.851563-0.804687 0.002567-0.002642 0.005247-0.00517 0.007812-0.007813zm1.300781 0.439453c-0.056873 0.024202-0.113124 0.049841-0.169921 0.074219-0.1283 0.38971-0.273399 0.799772-0.310547 1.095703 0.175532-0.284276 0.339407-0.575793 0.509765-0.863281 0.014537-0.128005 0.012268-0.238548-0.029297-0.306641z" style="fill:#ffffff;opacity:.2"/>
</svg>

<svg xmlns="http://www.w3.org/2000/svg" width="32" height="32" version="1">
 <rect style="opacity:0.2" width="28" height="28" x="2" y="3" rx="1.4" ry="1.4"/>
 <rect style="fill:#636e72" width="28" height="28" x="2" y="2" rx="1.4" ry="1.4"/>
 <path style="opacity:0.2" d="m 18.440292,4.9999997 c -1.738253,1.0509085 -3.523788,2.0288941 -5.223589,3.1401556 -0.623637,2.9797267 -1.2279,5.9638237 -1.811972,8.9515467 0.655495,0.832197 1.374437,1.612322 2.05334,2.425351 -0.663155,-0.211596 -1.496213,-0.688701 -2.228071,-0.984029 0.576127,2.127861 1.178763,4.249426 1.807191,6.362434 0.840253,-0.07227 1.674116,-0.206571 2.514098,-0.281596 -0.602993,0.621219 -1.254051,1.194098 -1.860623,1.811796 1.060396,-0.441234 2.103334,-0.923339 3.160159,-1.373061 0.203045,0.332637 -0.399029,1.523779 -0.480148,2.169988 0.463261,-0.750255 0.904533,-1.514316 1.344766,-2.278345 l 0.405658,-0.190787 c 0,0 -0.118792,-0.119037 0,0 0.921319,0.145327 1.840601,0.32076 2.761169,0.459574 -0.828434,-0.406669 -1.670649,-0.78471 -2.499095,-1.191355 0.828464,-0.34344 1.711184,-0.604056 2.557441,-0.924148 -0.832278,-0.0078 -1.664603,0.01499 -2.496901,0.0055 0.134455,-0.296898 1.139192,-0.820669 1.57442,-1.226363 C 19.410224,21.17056 18.725266,20.534323 18.112941,19.832052 19.171969,16.363973 20.283273,12.91196 21.37084,9.4526934 20.395518,7.9675246 19.442707,6.4669055 18.440292,4.9999594 Z"/>
 <path style="fill:#ffe082" d="m 18.440292,3.9999997 c -1.738253,1.0509085 -3.523788,2.0288941 -5.223589,3.1401556 -0.623637,2.9797267 -1.2279,5.9638237 -1.811972,8.9515467 0.655495,0.832197 1.374437,1.612322 2.05334,2.425351 -0.663155,-0.211596 -1.496213,-0.688701 -2.228071,-0.984029 0.576127,2.127861 1.178763,4.249426 1.807191,6.362434 0.840253,-0.07227 1.674116,-0.206571 2.514098,-0.281596 -0.602993,0.621219 -1.254051,1.194098 -1.860623,1.811796 1.060396,-0.441234 2.103334,-0.923339 3.160159,-1.373061 0.203045,0.332637 -0.399029,1.523779 -0.480148,2.169988 0.463261,-0.750255 0.904533,-1.514316 1.344766,-2.278345 l 0.405658,-0.190787 c 0,0 -0.118792,-0.119037 0,0 0.921319,0.145327 1.840601,0.32076 2.761169,0.459574 -0.828434,-0.406669 -1.670649,-0.78471 -2.499095,-1.191355 0.828464,-0.34344 1.711184,-0.604056 2.557441,-0.924148 -0.832278,-0.0078 -1.664603,0.01499 -2.496901,0.0055 0.134455,-0.296898 1.139192,-0.820669 1.57442,-1.226363 C 19.410224,20.17056 18.725266,19.534323 18.112941,18.832052 19.171969,15.363973 20.283273,11.91196 21.37084,8.4526934 20.395518,6.9675246 19.442707,5.4669055 18.440292,3.9999594 Z"/>
 <path style="opacity:0.2" d="m 17.596139,7.9923506 c -1.464537,3.9371024 -2.38957,8.6952714 -2.614382,13.0937614 -0.05297,0.612886 -0.03803,0.488701 0.361815,0.969925 1.984534,2.388814 3.96485,4.91619 5.96037,6.943963 l -6.52e-4,-0.140056 c -1.907594,-2.615599 -3.815188,-4.820783 -5.722782,-7.146586 -0.166883,-0.200328 -0.212369,-0.203159 -0.198451,-0.44588 0.253204,-4.408722 1.244972,-9.290226 2.214082,-13.2751274 z"/>
 <path style="fill:#ffffff" d="m 17.596139,6.9923506 c -1.464537,3.9371024 -2.38957,8.6952714 -2.614382,13.0937614 -0.05297,0.612886 -0.03803,0.488701 0.361815,0.969925 1.984534,2.388814 3.96485,4.91619 5.96037,6.943963 l -6.52e-4,-0.140056 c -1.907594,-2.615599 -3.815188,-4.820783 -5.722782,-7.146586 -0.166883,-0.200328 -0.212369,-0.203159 -0.198451,-0.44588 0.253204,-4.408722 1.244972,-9.290226 2.214082,-13.2751274 z"/>
 <path style="fill:#ffffff;opacity:0.1" d="M 3.4003906 2 C 2.6247906 2 2 2.6247906 2 3.4003906 L 2 4.4003906 C 2 3.6247906 2.6247906 3 3.4003906 3 L 28.599609 3 C 29.375209 3 30 3.6247906 30 4.4003906 L 30 3.4003906 C 30 2.6247906 29.375209 2 28.599609 2 L 3.4003906 2 z"/>
 <path style="fill:#ffffff;opacity:0.2" d="M 18.439453 4 C 16.7012 5.0509085 14.916598 6.0293635 13.216797 7.140625 C 12.59316 10.120352 11.988369 13.104074 11.404297 16.091797 C 11.456644 16.158255 11.513303 16.221272 11.566406 16.287109 C 12.101279 13.56852 12.649212 10.852536 13.216797 8.140625 C 14.916598 7.0293635 16.7012 6.0509085 18.439453 5 C 19.369249 6.3606747 20.256212 7.7514448 21.158203 9.1308594 C 21.229406 8.9050123 21.300072 8.6790274 21.371094 8.453125 C 20.395772 6.9679562 19.441868 5.4669461 18.439453 4 z M 11.230469 17.533203 C 11.334643 17.91796 11.450737 18.299262 11.556641 18.683594 C 12.203702 18.973364 12.89086 19.336304 13.458984 19.517578 C 13.015267 18.986199 12.558407 18.464493 12.109375 17.9375 C 11.812328 17.795067 11.512951 17.647194 11.230469 17.533203 z M 18.347656 19.083984 C 18.270826 19.333743 18.189597 19.582115 18.113281 19.832031 C 18.549956 20.33285 19.01639 20.806122 19.472656 21.289062 C 19.680462 21.146938 19.878862 21.006256 20.017578 20.876953 C 19.484533 20.25781 18.898268 19.687315 18.347656 19.083984 z M 20.941406 22.097656 C 20.537957 22.093875 20.133932 22.096176 19.730469 22.099609 C 19.334023 22.392763 18.838989 22.702541 18.591797 22.943359 C 19.359726 22.639801 20.164778 22.391412 20.941406 22.097656 z M 18.478516 23.066406 C 18.471491 23.077661 18.448197 23.092833 18.443359 23.103516 C 18.480451 23.103939 18.517595 23.103215 18.554688 23.103516 C 18.529288 23.091187 18.503892 23.078783 18.478516 23.066406 z M 19.564453 23.583984 C 19.306345 23.673252 19.054247 23.77105 18.800781 23.867188 C 19.494733 23.98487 20.188823 24.108243 20.882812 24.212891 C 20.445862 23.998397 20.005028 23.790948 19.564453 23.583984 z M 15.550781 24.613281 C 15.163775 24.647848 14.77821 24.69432 14.392578 24.742188 C 14.156133 24.967386 13.920161 25.19283 13.691406 25.425781 C 14.312727 25.167248 14.92733 24.892955 15.542969 24.621094 C 15.545536 24.618452 15.548216 24.615924 15.550781 24.613281 z M 16.851562 25.052734 C 16.794689 25.076936 16.738438 25.102575 16.681641 25.126953 C 16.553341 25.516663 16.408242 25.926725 16.371094 26.222656 C 16.546626 25.93838 16.710501 25.646863 16.880859 25.359375 C 16.895396 25.23137 16.893127 25.120827 16.851562 25.052734 z"/>
</svg>
